X:47
T:Love and a Bottle
T:1713
K:Ebmaj clef=treble
M:4/4
M:6/8
L:1/8
c'/2=b/2\
[||:"Cm"c'2g f2e | "Fm"dec "G"=B2c'/2=b/2 | \
"Cm"c'2g f2e | "G"d3 "Cm"c2 c'/2=b/2 |
"Cm"c'2g f2e | "Fm"dec "G"=B2=b | \
"Cm"c'd'e' "Bb"d'c'b |1 =a3 g2 c'/2=b/2 :|2 a3 g2 g/2a/2 ||
[||:"Eb"b>c'b be'b | "Cm" b>c'b b2b | \
"Fm"c'd'e' "Ab"d'e'c' | "G"=b3 g2g/2a/2 |
"Eb"b>c'b bag | "Fm"agf "G"gc'd' | \
"Cm"e'd'c' "G"c'2=b |1 "Cm"c'3 c'2 g/2a/2 :|2 "Cm"c'3 c'2 c'/2=b/2 |]

